X: 2
T: Hector The Hero
R: waltz
M: 3/4
L: 1/8
K: Dmaj
|:D/E/ | "D"F>ED "G"B2A/F/ | "D"~A3 "D"A2D/E/ | "Bm"F2E/D/ "G"B2A/F/ |
"Em"~E3 "A"E2F/A/ | "Bm"F>ED "G"B2A/F/ | "D"A2D "G"d2B |
"D"A2D/F/ "A"E2D | "D"D3- "D"~D2 :||: F/A/ | "G"B2G/B/ "G"d2c/B/ |
"D"A2-A/B/ "D"A2F/A/ | "Bm"B2A/F/ "Bm"A2D/F/ | "Em"E2-E/F/ "A"E2F/A/ |"Bm"B2G/B/ "G"d2c/B/ |
[1"D"A2G/F/ "G"d2G | "D"F2D/F/ "A"E2D | "D"D3- "D"D2 :|
[2 "D"A2D "G"d2B | "D"A2D/F/ "A"E2D | "D"D3- "D"D2 |]


Tune 1292	Setting 28156

